assets/link-1003bbd6.svg

<svg width="24" height="24" viewBox="0 0 24 24" fill="none" xmlns="http://www.w3.org/2000/svg">
<path d="M13.125 15.989L13.0687 15.9937C12.9 16.0125 12.7406 16.0875 12.6188 16.2046L9.59063 19.2328C8.94844 19.875 8.09063 20.2265 7.17656 20.2265C6.2625 20.2265 5.40469 19.875 4.7625 19.2328C4.12031 18.5906 3.76875 17.7328 3.76875 16.8187C3.76875 15.9046 4.12031 15.0468 4.7625 14.4046L7.97812 11.189C8.14219 11.025 8.32031 10.8796 8.5125 10.7531C8.72813 10.6125 8.9625 10.4906 9.20625 10.4015C9.43125 10.3171 9.67031 10.2609 9.90937 10.2281C10.0687 10.2046 10.2328 10.1953 10.3875 10.1953C10.4531 10.1953 10.5187 10.2 10.6031 10.2046C11.4328 10.2562 12.2156 10.6078 12.7969 11.189C13.1578 11.55 13.4344 11.9906 13.5984 12.4687C13.7297 12.8437 14.1234 13.0546 14.5031 12.9421C14.5078 12.9421 14.5125 12.9375 14.5172 12.9375C14.5219 12.9375 14.5266 12.9375 14.5266 12.9328C14.9062 12.8156 15.1266 12.4171 15.0187 12.0375C14.8125 11.3062 14.4469 10.6921 13.8656 10.1156C13.1344 9.38433 12.1828 8.9062 11.1656 8.74214C11.0766 8.72808 10.9875 8.71401 10.8984 8.70464C10.725 8.68589 10.5516 8.67651 10.3781 8.67651C10.2562 8.67651 10.1344 8.6812 10.0172 8.69058C9.76406 8.70933 9.51094 8.74683 9.25781 8.80776C9.20625 8.81714 9.15938 8.8312 9.10781 8.84526C8.79375 8.92964 8.48438 9.04214 8.19375 9.18745C7.71094 9.42651 7.275 9.73589 6.89531 10.1203L3.67969 13.3359C2.76094 14.2687 2.25 15.5062 2.25 16.8281C2.25 18.15 2.76094 19.3875 3.68906 20.3156C4.61719 21.239 5.85469 21.75 7.17188 21.75C8.49375 21.75 9.73125 21.239 10.6594 20.3109L13.7203 17.25C14.2078 16.7578 13.8141 15.9234 13.125 15.989Z" fill="white"/>
<path d="M20.3109 3.68906C19.3828 2.76094 18.1453 2.25 16.8281 2.25C15.5109 2.25 14.2687 2.76094 13.3406 3.68906L10.3547 6.675C9.89999 7.12969 10.1859 7.90781 10.8281 7.95938C11.0484 7.97813 11.2641 7.89844 11.4234 7.74375L14.4141 4.7625C15.0562 4.12031 15.9141 3.76875 16.8281 3.76875C17.7422 3.76875 18.6 4.12031 19.2422 4.7625C19.8844 5.40469 20.2359 6.2625 20.2359 7.17656C20.2359 8.09063 19.8844 8.94844 19.2422 9.59063L16.0266 12.8063C15.8625 12.9703 15.6844 13.1156 15.4922 13.2422C15.2766 13.3828 15.0422 13.5047 14.7984 13.5938C14.5734 13.6781 14.3344 13.7344 14.0953 13.7672C13.9359 13.7906 13.7719 13.8 13.6172 13.8C13.5516 13.8 13.4812 13.7953 13.4016 13.7906C12.5719 13.7391 11.7891 13.3875 11.2078 12.8063C10.8656 12.4641 10.6078 12.0562 10.4391 11.6109C10.3031 11.25 9.91874 11.0531 9.54374 11.1516C9.12656 11.2594 8.88281 11.7 9.01406 12.1125C9.22499 12.7687 9.58124 13.3266 10.125 13.8703L10.1344 13.8797C10.9266 14.6719 11.9812 15.1734 13.1016 15.2906C13.275 15.3094 13.4484 15.3187 13.6219 15.3187C13.7437 15.3187 13.8656 15.3141 13.9875 15.3047C14.2922 15.2812 14.5969 15.2297 14.8922 15.1547C15.2062 15.0703 15.5156 14.9578 15.8062 14.8125C16.2891 14.5734 16.725 14.2641 17.1047 13.8797L20.3203 10.6641C21.2484 9.73594 21.7594 8.49844 21.7594 7.17656C21.7594 5.85469 21.2391 4.61719 20.3109 3.68906Z" fill="white"/>
</svg>

<svg xmlns="http://www.w3.org/2000/svg" width="24" height="24" fill="none" viewBox="0 0 24 24"><path fill="#fff" d="m13.125 15.989-.056.005a.776.776 0 0 0-.45.21l-3.029 3.03a3.39 3.39 0 0 1-2.414.994 3.388 3.388 0 0 1-2.414-.994 3.389 3.389 0 0 1-.994-2.414c0-.914.351-1.772.994-2.414l3.215-3.216a3.394 3.394 0 0 1 2.41-.994c.065 0 .13.005.215.01a3.373 3.373 0 0 1 2.995 2.264.738.738 0 0 0 .905.473c.005 0 .01-.005.014-.005.005 0 .01 0 .01-.004.38-.117.6-.516.492-.896-.207-.73-.572-1.345-1.153-1.921a4.934 4.934 0 0 0-2.968-1.411 4.836 4.836 0 0 0-1.64.103c-.052.01-.099.023-.15.037a4.877 4.877 0 0 0-2.213 1.275L3.68 13.336a4.945 4.945 0 0 0-1.43 3.492 4.908 4.908 0 0 0 4.922 4.922 4.89 4.89 0 0 0 3.487-1.44l3.061-3.06c.488-.492.094-1.327-.595-1.261Z"/><path fill="#fff" d="M20.31 3.69a4.892 4.892 0 0 0-3.482-1.44c-1.317 0-2.56.51-3.487 1.44l-2.986 2.985a.754.754 0 0 0 .473 1.284c.22.02.436-.06.595-.215l2.991-2.981a3.388 3.388 0 0 1 2.414-.994c.914 0 1.772.351 2.414.994.642.642.994 1.5.994 2.414a3.39 3.39 0 0 1-.994 2.414l-3.215 3.215a3.4 3.4 0 0 1-1.229.788c-.225.084-.464.14-.703.173-.16.024-.323.033-.478.033-.065 0-.136-.005-.215-.01a3.404 3.404 0 0 1-2.194-.984c-.342-.342-.6-.75-.769-1.195a.749.749 0 0 0-.895-.46.757.757 0 0 0-.53.962c.211.656.567 1.214 1.111 1.757l.01.01a4.935 4.935 0 0 0 3.853 1.425 4.879 4.879 0 0 0 3.117-1.425l3.215-3.216a4.895 4.895 0 0 0 1.44-3.487c0-1.322-.52-2.56-1.45-3.488Z"/></svg>
